newicons/beep.svg

<?xml version="1.0" encoding="UTF-8"?><svg id="b" xmlns="http://www.w3.org/2000/svg" viewBox="0 0 48 48"><defs><style>.c{fill:none;stroke:#fff;stroke-linecap:round;stroke-linejoin:round;}</style></defs><path class="c" d="M26.49,35.094c-1.437-.773-2.51-3.017-2.377-4.912l-3.217-3.487c-.616-.667-.947-2.119.012-2.913,1.066-.883,2.107-.361,2.917.448l5.228,5.23M21.534,30.322c.166,2.292.73,5.125,2.871,6.261v3.556M32.583,37.67v-12.502c0-1.012-.374-2.142-1.125-2.82l-3.362-3.04"/><path class="c" d="M24.058,30.261h-5.935c-.2872,0-.52-.2328-.52-.52h0v-15.633c0-.288.232-.52.52-.52h9.362c.288,0,.52.232.52.52v14.122"/><path class="c" d="M40.35,24c0,9.0299-7.3201,16.35-16.35,16.35S7.65,33.0299,7.65,24c0-9.0299,7.3201-16.35,16.35-16.35s16.35,7.3201,16.35,16.35"/><path class="c" d="M45.5,24c0,11.8741-9.6259,21.5-21.5,21.5S2.5,35.8741,2.5,24,12.1259,2.5,24,2.5s21.5,9.6259,21.5,21.5"/><path class="c" d="M42.929,24c-.0006,10.454-8.475,18.9284-18.929,18.929-10.454-.0006-18.9284-8.475-18.929-18.929.0006-10.454,8.475-18.9284,18.929-18.929,10.454.0006,18.9284,8.475,18.929,18.929"/></svg>

<svg xmlns="http://www.w3.org/2000/svg" xml:space="preserve" viewBox="0 0 48 48"><path d="M26.49 35.094c-1.437-.773-2.51-3.017-2.377-4.912l-3.217-3.487c-.616-.667-.947-2.119.012-2.913 1.066-.883 2.107-.361 2.917.448l5.228 5.23M21.534 30.322c.166 2.292.73 5.125 2.871 6.261v3.556M32.583 37.67V25.168c0-1.012-.374-2.142-1.125-2.82l-3.362-3.04" style="fill:none;fill-opacity:.466567;stroke:#fff;stroke-width:1;stroke-linecap:round;stroke-linejoin:round;stroke-dashoffset:1.3;stroke-opacity:1"/><path d="M24.058 30.261h-5.935a.52.52 0 0 1-.52-.52V14.108c0-.288.232-.52.52-.52h9.362c.288 0 .52.232.52.52V28.23" style="fill:none;fill-opacity:.466567;stroke:#fff;stroke-width:1;stroke-linecap:round;stroke-linejoin:round;stroke-dashoffset:1.3;stroke-opacity:1"/><path d="M40.35 24A16.35 16.35 0 0 1 24 40.35 16.35 16.35 0 0 1 7.65 24 16.35 16.35 0 0 1 24 7.65 16.35 16.35 0 0 1 40.35 24" style="fill:none;fill-opacity:.466567;stroke:#fff;stroke-width:1;stroke-linecap:round;stroke-linejoin:round;stroke-dashoffset:1.3;stroke-opacity:1"/><path d="M45.5 24A21.5 21.5 0 0 1 24 45.5 21.5 21.5 0 0 1 2.5 24 21.5 21.5 0 0 1 24 2.5 21.5 21.5 0 0 1 45.5 24" style="fill:none;fill-opacity:.466567;stroke:#fff;stroke-width:1;stroke-linecap:round;stroke-linejoin:round;stroke-dashoffset:1.3;stroke-opacity:1"/><path d="M42.929 24A18.93 18.93 0 0 1 24 42.929 18.93 18.93 0 0 1 5.071 24 18.93 18.93 0 0 1 24 5.071 18.93 18.93 0 0 1 42.929 24" style="fill:none;fill-opacity:.466567;stroke:#fff;stroke-width:1;stroke-linecap:round;stroke-linejoin:round;stroke-dashoffset:1.3;stroke-opacity:1"/></svg>
